X:1
T:Vous me l'aviez bien dit
T:Constantijn Huygens
T:Vous me l'aviez bien dit
C:Constantijn Huygens
%%score 1 2 { ( 3 5 ) | 4 }
L:1/8
Q:1/4=50
M:4/4
K:Eb
V:1 treble-8 nm="Tenor" snm="T"
V:2 treble transpose=-12 nm="Viola da Gamba" snm="V.Gam."
V:3 treble nm="Harpsichord" snm="Hpschd."
V:5 treble 
V:4 bass 
V:1
 z4 B4- | B2 BB ce d2- |[M:3/4] d2 eB B2- | B2 AG F2 | D2 z2 E2 | E3 E FF | G4 GB | A3 G c2 | %8
w: 1.Vous|_ me l'a- viez bien dit,|_ vi- si- ons|_ in- qui- e-|tes, Con-|fu- ses ve- ri-|tez, Que deux|As- tres be-|
w: 2.El-|* le se mes- cog- noist,|_ la fa- rou-|* che, la fie-|re, La|per- fi- de beau-|té, Des- tour-|nez vous mes|
 =B4 cG | =A2 BF G2 |[M:4/4] F2 B4 cc | d2 =e2 f4- |[M:3/4] !fermata!f2 z2 c2 | c4 d2- | %14
w: nins de- ve-|noient deux co- me-|tes, Et pre- sa-|geoient la fin|_ de|mes pro-|
w: yeux, n'a- do-|rons plus la pier-|re In- sen- si-|ble à mes cris|_ comme|à ma|
 d2- d3/2e/4f/4 cB | B6 :: e4 ff | g4 G2 | z2 c4- | c2 B2 z2 | AA A2 AB |[M:4/4] G3 F F2 F2 | %22
w: * * * * spe- ri-|tez.|O es- pe-|ran- ces|vai-|* nes!|Si Na- tu- re n'a|plus de loy, Ne|
w: _ _ _ _ loy- au-|té.|||||||
 F=EFE FG A>(B | c)def g(g f2) | ee d>(c B2) ee | e4 d2 e2 | f4 g4 | z2 g/f/e/d/ c2 z2 | %28
w: re- ve- nez vous pas, _ fleu- ves,|_ à vos fon- tai- nes, _|A- me- li- te, _ A- me-|li- te,A- me-|li- te a|man- * * * *|
w: ||||||
[M:3/4] z2 e2 d>e | e6 :| %30
w: man- qué de|foy.|
w: ||
V:2
 E8 | G4 FE B2 |[M:3/4] G6 | A2 A,2 B,2- | B,2 z2 C2 | A,6 | G,4 G2 | F2 C2 c2 | G3 F =E2 | %9
 F2 D2 E2 |[M:4/4] B,2 B2 =A4 | G4 F4 |[M:3/4] z2 z2 =E2 | F4 B2 | F6 | B,6 :: e4 d2 | c4 B2 | A6 | %19
 G4 z2 | F2 D4 |[M:4/4] E4 B,4 | A,2 G,2 F,2 F2 | c2 C4 D2 | E2 F2 G4 | A2 =A2 B2 c2 | _d2 =dB e4 | %27
 G4 A4 |[M:3/4] F2 B2 B,2 | E6 :| %30
V:3
 [B,EG]4 z4 | [DG]4 [FA][GB] [DGB]2 |[M:3/4] [GB]4 [EGB]2 | [CEA]4 [B,DF]2 | [F,B,D]2 z2 [G,CE]2 | %5
 [A,CE]4 [A,CF]2 | [B,DG]4 [DGB]2 | [A,CF]4 [C=EG]2 | [=B,DG]4 [C=EG]2 | [CF]2 [B,DF]2 [B,EG]2 | %10
[M:4/4] [B,DF]4 [=A,CF]4 | =B2 c2 _d/c/d/c/ d/c/d/c/ |[M:3/4] _dc z2 G2 | [CFA]4 [DGB]2 | %14
 [DFB]4 FE | E2 D4 :: [Gc]2 [GB]2 [FA]2 | [Ge]2 [EGc]2 [DGB]2 | [CEA]2 x4 | [B,DG]4 z2 | %20
 [Ac]2 [FA]2 [DG]2 |[M:4/4] [B,EG]4 [B,DF]4 | [A,C]2 [G,C]2 [A,C]2 [CF]2 | %23
 z A[Gc][Ad] [ce][ce] [Bd]2 | [EGB]2 [DFA]2 [EG]4 | [EAc]2 [Fc]2 [DGB]2 [EGc]2 | %26
 [FA]2 [FB]2 [GBe]2 [Gd]2 | [EGc]4 [EAc]4 |[M:3/4] [DFB]2 [EGB]2 [DFB]A | [B,EG]6 :| %30
V:4
 E,8 | G,4 F,E, B,2 |[M:3/4] G,6 | A,2 A,,2 B,,2- | B,,2 z2 C,2 | A,,6 | G,,4 G,2 | F,2 C,2 C2 | %8
 G,3 F, =E,2 | F,2 D,2 E,2 |[M:4/4] B,,2 B,2 =A,4 | G,4 F,4 |[M:3/4] z2 z2 =E,2 | F,4 B,2 | F,6 | %15
 B,,6 :: E4 D2 | C4 B,2 | A,6 | G,4 z2 | F,2 D,4 |[M:4/4] E,4 B,,4 | A,,2 G,,2 F,,2 F,2 | %23
 C2 C,4 D,2 | E,2 F,2 G,4 | A,2 =A,2 B,2 C2 | _D2 =DB, E4 | G,4 A,4 |[M:3/4] F,2 B,2 B,,2 | E,6 :| %30
V:5
 x8 | x8 |[M:3/4] x6 | x6 | x6 | x6 | x6 | x6 | x6 | x6 |[M:4/4] x8 | [DG]2 [=EG]2 [FA]2 [FA]2 | %12
[M:3/4] [FA]2 z2 [C=E]2 | x6 | D4 C2 | B,6 :: x6 | x6 | x6 | x6 | x6 |[M:4/4] x8 | x8 | x8 | x8 | %25
 x8 | x8 | x8 |[M:3/4] x6 | x6 :| %30

